X: 38390
T: Star Of Munster, The
R: reel
M: 4/4
K: Gminor
|:GA|((3Bcd B)G ((3ABc A)F|GFDG FDCF|(3DD(G {A}GF G)ABc|(3ddd {e}dd cAFA|
BG[BG]G [A3F3] G|D ~G3 FD[DC]F|(3DD(G {A}GF G)ABc|1 ((3dcB (3cBA B) ~G2 A:|2 (3dd(B {d}BA) ~G3 =B||
dgg^f gd (3ddd|gdad gdd(=e|=f2) =eg f ~c3|fgag fdcA|
dgg^f gd (3ddd|gdad gdd=e|({=fg}f=e fa) (f ~g3)|ga{b}ag fdcA:|

